T: Cascade
M: 3/4
L: 1/8
K: Dmaj
A-part, bar 3 ~ | f2 f>d f*b | a4 (3def |B-part, bars 2-3 ~ | a2 g2- g>e | c>e a>g f*e | bar 5-7 ~ | b2 a2 (3Adf | a2 g2- g>e | c*e a>g B*c |
